public/icons/jrt.svg

<?xml version="1.0" encoding="utf-8"?>
<!-- Generator: Adobe Illustrator 24.2.2, SVG Export Plug-In . SVG Version: 6.00 Build 0)  -->
<svg version="1.1" id="Layer_1" xmlns="http://www.w3.org/2000/svg" xmlns:xlink="http://www.w3.org/1999/xlink" x="0px" y="0px"
	 viewBox="0 0 500 500" style="enable-background:new 0 0 500 500;" xml:space="preserve">
<style type="text/css">
	.st0{fill:#4FFB75;}
</style>
<circle class="st0" cx="250.1" cy="249.1" r="247.5"/>
<path d="M119,297.4h36.9v89.2H119V297.4z M345.2,239.1h36.9v89.2h-36.9V239.1z M175.1,209.8h36.9v205.5h-36.9V209.8z M232.4,218.3
	h36.9v157.9h-36.9V218.3z M288.5,69.6h36.9v258.7h-36.9V69.6z"/>
</svg>

<?xml version="1.0" encoding="utf-8"?>
<!-- Generator: Adobe Illustrator 25.1.0, SVG Export Plug-In . SVG Version: 6.00 Build 0)  -->
<svg version="1.1" id="Layer_1" xmlns="http://www.w3.org/2000/svg" xmlns:xlink="http://www.w3.org/1999/xlink" x="0px" y="0px"
	 viewBox="0 0 500 500" style="enable-background:new 0 0 500 500;" xml:space="preserve">
<path d="M250.1,1.6C113.4,1.6,2.6,112.4,2.6,249.1s110.8,247.5,247.5,247.5s247.5-110.8,247.5-247.5S386.8,1.6,250.1,1.6z
	 M155.9,386.6H119v-89.2h36.9V386.6z M212,415.3h-36.9V209.8H212V415.3z M269.3,376.2h-36.9V218.3h36.9V376.2z M325.4,328.3h-36.9
	V69.6h36.9V328.3z M382.1,328.3h-36.9v-89.2h36.9V328.3z"/>
</svg>
